!!!ONB: MCCC : IJH0461_02 : Extracted Monophonic Melody
!!!COM: Haydn, Joseph
!!!OPR: String Quartet in G major
!!!OMV: 2
!!!SCT: Hob.III:29 ; Op.17 No.5
!!!ODT: 1771///
**kern
*thru
*k[f#]
*G:
*clefG
*M3/4
8g
8b
=1
2dd
8b
8g
=2
4f#
4a
4d
=3
4g
4a
4b
=4
8dd
8cc
4r
8g
8b
=5
2dd
8b
8g
=6
4f#
4a
4d
=7
4g
4a
8cc
8b
=8
4g
4r
8b
8dd
=9
4gg
4dd
4ee
=10
4cc
4ccc
8aa
8ccc
=11
4ddd
4bb
8ee
8aa
=12
4gg
4ff#
8g
8b
=13
2dd
8b
8g
=14
4f#
4a
4d
=15
4g
4a
4b
=16
8dd
8cc
4r
8gg
8bb
=17
4ddd
8gg
8bb
4ccc
=18
8ff#
8aa
4bb
8ee
8gg
=19
2.gg
=20
4ff#
4r
8g
8b
=21
2dd
8b
8g
=22
4f#
4a
4d
=23
4g
4a
4b
=24
8dd
8cc
4r
8b
8dd
=25
4ee
8a
8cc
4dd
=26
8g
8b
4cc
8f#
8a
=27
4b
4cc
4a
=28
4g
4r
8g
8b
=29
2dd
8b
8g
=30
4f#
4a
4d
=31
4g
4g
4g
=32
4g
4r
4d
=33
4g
4g
4g
=34
4g
8g
8a
4g
=35
4cc
4cc
4cc
=36
4cc
8cc
8dd
4cc
=37
4b-
4b-
4b-
=38
4ee-
8ee-
8ff
4ee-
=39
4dd
4ff
4ff
=40
4ff
8ff
8gg
4ff
=41
4ff
4b-
4b-
=42
4a
8a
8b-
4cc
=43
4b-
4dd
4dd
=44
2dd
4d
=45
4g
4g
4g
=46
4g
8g
8a-
4g
=47
4f
4f
4f
=48
4f
8f
8g
4f
=49
4b-
4b-
4b-
=50
4b-
8b-
8cc
4b-
=51
4ee-
4ee-
4ee-
=52
4ee-
8ee-
8ff
4ee-
=53
4ccc
4ccc
4ccc
=54
4ccc
4r
8d
8a
=55
4cc
4r
8d
8f#
=56
4g
2r
==
*-
